site_src/Assets/svg/birthday-cake-svgrepo-com.svg

<?xml version="1.0" encoding="utf-8"?><!-- Uploaded to: SVG Repo, www.svgrepo.com, Generator: SVG Repo Mixer Tools -->
<svg fill="#000000" width="800px" height="800px" viewBox="0 0 50 50" xmlns="http://www.w3.org/2000/svg" xmlns:xlink="http://www.w3.org/1999/xlink"><path d="M25 0.09375L24.21875 1.09375C23.515625 1.992188 20 6.578125 20 9C20 11.414063 21.722656 13.441406 24 13.90625L24 10C24 9.449219 24.449219 9 25 9C25.550781 9 26 9.449219 26 10L26 13.90625C28.277344 13.441406 30 11.414063 30 9C30 6.578125 26.484375 1.992188 25.78125 1.09375 Z M 23 15C21.347656 15 20 16.347656 20 18L20 26L30 26L30 18C30 16.347656 28.652344 15 27 15 Z M 11 28C8.179688 28 5.761719 29.683594 4.65625 32.09375C5.226563 33.597656 5.804688 34.398438 5.8125 34.40625C6.703125 35.59375 8.390625 37 11.40625 37C13.863281 37 15.6875 36.15625 17 34.40625L17.75 33.375L18.5625 34.375C20.042969 36.152344 22.152344 37 25 37C27.769531 37 30 36.101563 31.4375 34.375L32.25 33.375L33 34.40625C34.3125 36.15625 36.136719 37 38.59375 37C41.050781 37 42.875 36.15625 44.1875 34.40625C44.214844 34.371094 44.964844 33.414063 45.375 32.125C44.277344 29.691406 41.839844 28 39 28 Z M 4 35.3125L4 42L46 42L46 35.34375C45.875 35.523438 45.792969 35.609375 45.78125 35.625C44.113281 37.847656 41.679688 39 38.59375 39C35.941406 39 33.785156 38.167969 32.15625 36.5C30.753906 37.785156 28.5 39 25 39C22.039063 39 19.640625 38.164063 17.84375 36.5C16.214844 38.164063 14.054688 39 11.40625 39C7.5625 39 5.351563 37.144531 4.1875 35.59375C4.175781 35.578125 4.113281 35.484375 4 35.3125 Z M 0 44L0 45C0 50 4.890625 50 6.5 50L43.5 50C45.105469 50 50 50 50 45L50 44Z"/></svg>

<svg xmlns="http://www.w3.org/2000/svg" width="800" height="800" viewBox="0 0 50 50"><path d="m25 .094-.781 1C23.516 1.992 20 6.578 20 9a5.02 5.02 0 0 0 4 4.906V10c0-.55.45-1 1-1s1 .45 1 1v3.906A5.02 5.02 0 0 0 30 9c0-2.422-3.516-7.008-4.219-7.906ZM23 15c-1.652 0-3 1.348-3 3v8h10v-8c0-1.652-1.348-3-3-3ZM11 28c-2.82 0-5.238 1.684-6.344 4.094.57 1.504 1.149 2.304 1.157 2.312C6.703 35.594 8.39 37 11.406 37c2.457 0 4.281-.844 5.594-2.594l.75-1.031.813 1C20.043 36.152 22.153 37 25 37c2.77 0 5-.898 6.438-2.625l.812-1 .75 1.031C34.313 36.156 36.137 37 38.594 37s4.281-.844 5.593-2.594c.028-.035.778-.992 1.188-2.281A6.99 6.99 0 0 0 39 28Zm-7 7.313V42h42v-6.656c-.125.18-.207.265-.219.281C44.113 37.848 41.68 39 38.594 39c-2.653 0-4.809-.832-6.438-2.5C30.754 37.785 28.5 39 25 39c-2.96 0-5.36-.836-7.156-2.5-1.63 1.664-3.79 2.5-6.438 2.5-3.844 0-6.054-1.855-7.219-3.406zM0 44v1c0 5 4.89 5 6.5 5h37c1.605 0 6.5 0 6.5-5v-1Z"/></svg>
